svg/fluentui-system-icons/ic_fluent_map_20_regular.svg

<svg width="20" height="20" viewBox="0 0 20 20" fill="none" xmlns="http://www.w3.org/2000/svg">
<path d="M17.7309 3.05651C17.8963 3.14261 18 3.31356 18 3.5V13C18 13.1632 17.9204 13.3161 17.7867 13.4096L12.7867 16.9096C12.6146 17.0301 12.3854 17.0301 12.2133 16.9096L7.5 13.6103L2.78673 16.9096C2.634 17.0165 2.43446 17.0296 2.26909 16.9435C2.10373 16.8574 2 16.6864 2 16.5V7C2 6.83684 2.07961 6.68395 2.21327 6.59039L7.21327 3.09039C7.38543 2.96987 7.61457 2.96987 7.78673 3.09039L12.5 6.38967L17.2133 3.09039C17.366 2.98347 17.5655 2.97041 17.7309 3.05651ZM12 7.26033L8 4.46033V12.7397L12 15.5397V7.26033ZM13 15.5397L17 12.7397V4.46033L13 7.26033V15.5397ZM7 12.7397V4.46033L3 7.26033V15.5397L7 12.7397Z" fill="#212121"/>
</svg>

<svg xmlns="http://www.w3.org/2000/svg" width="20" height="20"><path d="M17.73 3.057A.5.5 0 0 1 18 3.5V13a.5.5 0 0 1-.213.41l-5 3.5a.5.5 0 0 1-.574 0L7.5 13.61l-4.713 3.3A.5.5 0 0 1 2 16.5V7a.5.5 0 0 1 .213-.41l5-3.5a.5.5 0 0 1 .574 0l4.713 3.3 4.713-3.3a.5.5 0 0 1 .518-.033ZM12 7.26l-4-2.8v8.28l4 2.8V7.26Zm1 8.28 4-2.8V4.46l-4 2.8v8.28Zm-6-2.8V4.46l-4 2.8v8.28l4-2.8Z"/></svg>
